casedrop/img/media/vk.svg

<svg width="22" height="12" viewBox="0 0 22 12" fill="none" xmlns="http://www.w3.org/2000/svg">
<path d="M13.2972 5.81254C12.9222 5.67155 12.9222 5.13304 12.8989 4.75804C12.8052 3.42229 13.2739 1.38304 12.7114 0.516045C12.3132 4.44949e-05 10.3909 0.0472944 9.21942 0.117794C8.89092 0.165044 8.49266 0.234795 8.21141 0.375795C7.93016 0.516795 7.64891 0.750795 7.64891 0.961545C7.64891 1.26604 8.35242 1.21954 8.60966 1.61779C8.89091 2.04004 8.89091 2.95354 8.89091 3.70354C8.89091 4.57054 8.74992 5.71954 8.39892 5.76604C7.85967 5.78929 7.55516 5.25004 7.27391 4.85179C6.71141 4.07854 6.14891 3.11704 5.72667 2.17954C5.51591 1.68754 5.39816 1.14829 5.09366 0.937545C4.62491 0.609045 3.78116 0.585795 2.96066 0.609045C2.21066 0.632295 1.13216 0.538545 0.921414 0.984045C0.757164 1.47605 1.10891 1.94479 1.29641 2.34379C2.25716 4.42954 3.28841 6.25804 4.55441 7.99204C5.72667 9.60905 6.82767 10.8983 8.98392 11.5778C9.59367 11.7653 12.2652 12.3045 12.8044 11.5778C12.9919 11.2965 12.9454 10.6635 13.0392 10.1948C13.1329 9.72604 13.2499 9.2573 13.6954 9.23405C14.0704 9.2108 14.2812 9.53854 14.5159 9.77329C14.7739 10.0313 14.9847 10.242 15.1722 10.4768C15.6177 10.9223 16.0864 11.5313 16.6489 11.766C17.4222 12.0945 18.6177 12.0008 19.7427 11.9535C20.6569 11.9303 21.3132 11.7428 21.3837 11.2035C21.4309 10.7813 20.9614 10.1723 20.6802 9.82055C19.9767 8.95354 19.6489 8.69555 18.8517 7.89829C18.4999 7.54654 18.0544 7.17155 18.0544 6.75004C18.0312 6.49204 18.2419 6.25805 18.4294 6.00004C19.2499 4.78129 20.0704 3.91429 20.8204 2.64829C21.0312 2.27329 21.5239 1.4063 21.3364 0.984045C21.1257 0.515295 19.9534 0.655544 19.2267 0.655544C18.2892 0.655544 17.0704 0.585045 16.8357 0.772545C16.3902 1.07704 16.2027 1.5698 15.9919 2.03855C15.5232 3.11705 14.8902 4.21805 14.2339 5.03855C13.9992 5.3198 13.5544 5.90554 13.2964 5.81179L13.2972 5.81254Z" fill="#67718E"/>
</svg>

<svg width="22" height="12" fill="none" xmlns="http://www.w3.org/2000/svg"><path d="M13.297 5.813c-.375-.141-.375-.68-.398-1.055-.094-1.336.375-3.375-.188-4.242C12.313 0 10.391.047 9.22.118c-.328.047-.726.117-1.008.258-.28.14-.562.375-.562.586 0 .304.703.258.96.656.282.422.282 1.336.282 2.086 0 .867-.141 2.016-.492 2.062-.54.023-.844-.516-1.125-.914A15.638 15.638 0 015.727 2.18c-.211-.492-.329-1.032-.633-1.242C4.624.609 3.78.586 2.96.609 2.21.632 1.132.539.92.984c-.164.492.188.96.375 1.36.961 2.086 1.992 3.914 3.258 5.648 1.173 1.617 2.274 2.906 4.43 3.586.61.187 3.281.727 3.82 0 .188-.281.141-.914.235-1.383s.21-.938.656-.961c.375-.023.586.305.82.54.259.257.47.468.657.703.446.445.914 1.054 1.477 1.289.773.329 1.969.235 3.094.188.914-.024 1.57-.211 1.64-.75.048-.423-.422-1.032-.703-1.383-.703-.867-1.031-1.125-1.828-1.923-.352-.351-.798-.726-.798-1.148-.023-.258.188-.492.375-.75.82-1.219 1.641-2.086 2.391-3.352.211-.375.704-1.242.516-1.664-.21-.469-1.383-.328-2.11-.328-.937 0-2.156-.071-2.39.117-.446.304-.633.797-.844 1.266-.469 1.078-1.102 2.179-1.758 3-.235.28-.68.867-.938.773h.001z" fill="#67718E"/></svg>
